X: 4
T: Sleepy Maggie
R: reel
M: 4/4
L: 1/8
K: Bdor
f2Bb fBde|f2Ba eAce|f2Bb fBde|fgaf eAce:|
fBdB fBde|fBdB eAce|fBdB fBde|fgaf eAce|
fBdB fBde|fBdB eAce|fBbB aBgB|fgaf eAce|
f2Bb fBde|fB B/B/B eAce|fB B/B/B fBde|fgaf eAce:|
|:fB B/B/B bB B/B/B | aB B/B/B gB B/B/B | fBbB aBgB | fgaf eAce:|


